src/svg/featured/tesla.svg

<svg fill="none" height="86" viewBox="0 0 66 86" width="66" xmlns="http://www.w3.org/2000/svg"><g fill="#fff"><path d="m61.3462 9.32524c-10.0154-4.36515-19.7989-5.75278-28.3464-5.68741h-.0012c-8.5477-.06537-18.3329 1.32226-28.34635 5.68741-1.19319-2.16256-1.68155-3.47417-1.68155-3.47417 10.9469-4.33128 21.1993-5.8138865 30.0279-5.85107 8.8291.0371835 19.082 1.51955 30.0303 5.85107 0 0-.3441 1.06482-1.6827 3.47417z"/><path d="m33.0031 59.802 8.4021-47.2536c8.0086 0 10.5348.8782 10.8995 4.4627 0 0 5.3724-2.0032 8.0821-6.0716-10.5739-4.89966-21.1982-5.12063-21.1982-5.12063l-6.1921 7.54183-6.1928-7.54302s-10.6246.22121-21.19699 5.12092c2.70729 4.0684 8.08189 6.0716 8.08189 6.0716.3668-3.5848 2.8898-4.463 10.8448-4.4687z"/><path d="m16.6428 78.4799h6.3972c.8901-.1774 1.5516-.9611 1.737-1.7206h-9.8712c.1843.7595.8555 1.5432 1.737 1.7206z"/><path d="m64.2637 78.4868h-6.3993c-.8808-.1767-1.5515-.9609-1.736-1.7199h9.8716c-.1864.7588-.8474 1.5432-1.7363 1.7199z"/><path d="m56.3856 85.3551v-5.1896l9.3845.009v5.1806h-1.6631v-3.4553h-6.0571v3.4553z"/><path d="m51.3452 85.3584c.8391-.3558 1.2905-.971 1.4634-1.691h-7.4644l.0047-6.8963-1.6732.0048v8.5825z"/><path d="m37.1428 78.4636h-5.9101v1.6955h7.6783v5.1971h-9.335l-.4883.009c.3995-.8377 1.2005-1.4719 2.145-1.7353l6.0273-.0047v-1.7798h-7.684v-5.0719h9.3883c-.1824.7524-.9305 1.4312-1.8215 1.6901z"/><path d="m23.0401 81.8719h-6.3973c-.8815-.1755-1.5527-.9597-1.7369-1.7199h9.8711c-.1854.76-.8469 1.5444-1.7369 1.7199z"/><path d="m16.6428 85.3574h6.3973c.89-.1769 1.5515-.9611 1.7369-1.7201h-9.8711c.1842.7593.8554 1.5432 1.7369 1.7201z"/><path d="m1.7327 78.4892c-.890979-.1921-1.540388-.9587-1.7327-1.7088v-.0165h10.8178v.0165c-.189.7501-.82444 1.4767-1.72537 1.7088h-2.69521l-.15276.0543v6.7951h-1.68155v-6.7951l-.13736-.0543z"/></g></svg>

<svg width="66" height="86" viewBox="0 0 66 86" fill="none" xmlns="http://www.w3.org/2000/svg">
<path d="M61.3462 9.32524C51.3308 4.96009 41.5473 3.57246 32.9998 3.63783H32.9986C24.4509 3.57246 14.6657 4.96009 4.65225 9.32524C3.45906 7.16268 2.9707 5.85107 2.9707 5.85107C13.9176 1.51979 24.17 0.0371835 32.9986 0C41.8277 0.0371835 52.0806 1.51955 63.0289 5.85107C63.0289 5.85107 62.6848 6.91589 61.3462 9.32524Z" fill="white"/>
<path d="M33.0031 59.802L41.4052 12.5484C49.4138 12.5484 51.94 13.4266 52.3047 17.0111C52.3047 17.0111 57.6771 15.0079 60.3868 10.9395C49.8129 6.03984 39.1886 5.81887 39.1886 5.81887L32.9965 13.3607L26.8037 5.81768C26.8037 5.81768 16.1791 6.03889 5.60671 10.9386C8.314 15.007 13.6886 17.0102 13.6886 17.0102C14.0554 13.4254 16.5784 12.5472 24.5334 12.5415L33.0031 59.802Z" fill="white"/>
<path d="M16.6428 78.4799H23.04C23.9301 78.3025 24.5916 77.5188 24.777 76.7593H14.9058C15.0901 77.5188 15.7613 78.3025 16.6428 78.4799Z" fill="white"/>
<path d="M64.2637 78.4868H57.8644C56.9836 78.3101 56.3129 77.5259 56.1284 76.7669H66C65.8136 77.5257 65.1526 78.3101 64.2637 78.4868Z" fill="white"/>
<path d="M56.3856 85.3551V80.1655L65.7701 80.1745V85.3551H64.107V81.8998H58.0499V85.3551H56.3856Z" fill="white"/>
<path d="M51.3452 85.3584C52.1843 85.0026 52.6357 84.3874 52.8086 83.6674H45.3442L45.3489 76.7711L43.6757 76.7759V85.3584H51.3452Z" fill="white"/>
<path d="M37.1428 78.4636H31.2327V80.1591H38.911V85.3562H29.576L29.0877 85.3652C29.4872 84.5275 30.2882 83.8933 31.2327 83.6299L37.26 83.6252V81.8454H29.576V76.7735H38.9643C38.7819 77.5259 38.0338 78.2047 37.1428 78.4636Z" fill="white"/>
<path d="M23.0401 81.8719H16.6428C15.7613 81.6964 15.0901 80.9122 14.9059 80.152H24.777C24.5916 80.912 23.9301 81.6964 23.0401 81.8719Z" fill="white"/>
<path d="M16.6428 85.3574H23.0401C23.9301 85.1805 24.5916 84.3963 24.777 83.6373H14.9059C15.0901 84.3966 15.7613 85.1805 16.6428 85.3574Z" fill="white"/>
<path d="M1.7327 78.4892C0.841721 78.2971 0.192312 77.5305 0 76.7804V76.7639H10.8178V76.7804C10.6288 77.5305 9.99336 78.2571 9.09243 78.4892H6.39722L6.24446 78.5435V85.3386H4.56291V78.5435L4.42555 78.4892H1.7327Z" fill="white"/>
</svg>
